static/assets/template/assets/img/icons/clothing/bag.svg

<svg viewBox="0 0 100 116" xmlns="http://www.w3.org/2000/svg"><path d="m54 84h-8v4h8zm2 6h-12v-8h12zm40 8h-92v10a4 4 0 0 0 4 4h84a4 4 0 0 0 4-4zm0-46a4 4 0 0 0 -4-4h-84a4 4 0 0 0 -4 4v44h92zm-28-31.56a16.44 16.44 0 0 0 -16.44-16.44h-2a17.56 17.56 0 0 0 -17.56 17.56v22.44h36zm24 95.56h-84a8 8 0 0 1 -8-8v-56a8 8 0 0 1 8-8h20v-22.31a21.69 21.69 0 0 1 21.69-21.69h2a20.31 20.31 0 0 1 20.31 20.31v23.69h20a8 8 0 0 1 8 8v56a8 8 0 0 1 -8 8z" fill-rule="evenodd"/></svg>

<svg xmlns="http://www.w3.org/2000/svg" viewBox="0 0 100 116"><defs><style>.cls-1{fill-rule:evenodd;}</style></defs><title>bag</title><g id="Layer_2" data-name="Layer 2"><g id="Layer"><path class="cls-1" d="M54,84H46v4h8Zm2,6H44V82H56Zm40,8H4v10a4,4,0,0,0,4,4H92a4,4,0,0,0,4-4Zm0-46a4,4,0,0,0-4-4H8a4,4,0,0,0-4,4V96H96ZM68,20.44A16.44,16.44,0,0,0,51.56,4h-2A17.56,17.56,0,0,0,32,21.56V44H68ZM92,116H8a8,8,0,0,1-8-8V52a8,8,0,0,1,8-8H28V21.69A21.69,21.69,0,0,1,49.69,0h2A20.31,20.31,0,0,1,72,20.31V44H92a8,8,0,0,1,8,8v56A8,8,0,0,1,92,116Z"/></g></g></svg>
